actions/scalable/insert-table.svg

<svg height="22" width="22" xmlns="http://www.w3.org/2000/svg" xmlns:sodipodi="http://sodipodi.sourceforge.net/DTD/sodipodi-0.dtd" xmlns:inkscape="http://www.inkscape.org/namespaces/inkscape">
 <path d="m16 14v2h-2v1h2v2h1v-2h2v-1h-2v-2z" fill="#4d4d4d" transform="matrix(1 0 0 1 0 0)"/>
 <path d="m3 3v16h9v-1h-2v-2h2v-1h-2v-2h2v-1h-2v-2h2v2h1v-2h2v2h1v-2h2v2h1v-9h-16zm1 1h2 1 2v5h-5v-2-1-2zm6 0h2v2h-2v-2zm3 0h2v2h-2v-2zm3 0h2v2h-2v-2zm-6 3h2v2h-2v-2zm3 0h2v2h-2v-2zm3 0h2v2h-2v-2zm-12 3h2v2h-2v-2zm3 0h2v2h-2v-2zm-3 3h2v2h-2v-2zm3 0h2v2h-2v-2zm-3 3h2v2h-2v-2zm3 0h2v2h-2v-2z" fill="#4d4d4d" transform="matrix(1 0 0 1 0 0)"/>
 <path d="m4 4v3 2h5v-2-3h-2-3z" fill="#1d99f3" transform="matrix(1 0 0 1 0 0)"/>
</svg>

<?xml version="1.0" encoding="UTF-8" standalone="no"?>
<!-- Created with Inkscape (http://www.inkscape.org/) -->

<svg
   xmlns:dc="http://purl.org/dc/elements/1.1/"
   xmlns:cc="http://creativecommons.org/ns#"
   xmlns:rdf="http://www.w3.org/1999/02/22-rdf-syntax-ns#"
   xmlns:svg="http://www.w3.org/2000/svg"
   xmlns="http://www.w3.org/2000/svg"
   xmlns:sodipodi="http://sodipodi.sourceforge.net/DTD/sodipodi-0.dtd"
   xmlns:inkscape="http://www.inkscape.org/namespaces/inkscape"
   width="22"
   height="22"
   id="svg3760"
   version="1.1"
   inkscape:version="0.48+devel r"
   sodipodi:docname="insert-table.svg">
  <defs
     id="defs3762" />
  <sodipodi:namedview
     id="base"
     pagecolor="#ffffff"
     bordercolor="#666666"
     borderopacity="1.0"
     inkscape:pageopacity="0.0"
     inkscape:pageshadow="2"
     inkscape:zoom="24.447653"
     inkscape:cx="8.9214482"
     inkscape:cy="12.627665"
     inkscape:document-units="px"
     inkscape:current-layer="layer1"
     showgrid="true"
     fit-margin-top="0"
     fit-margin-left="0"
     fit-margin-right="0"
     fit-margin-bottom="0"
     inkscape:window-width="1366"
     inkscape:window-height="668"
     inkscape:window-x="-2"
     inkscape:window-y="23"
     inkscape:window-maximized="1"
     inkscape:showpageshadow="false">
    <sodipodi:guide
       position="4.1796875e-06,21.999997"
       orientation="22,0"
       id="guide4116" />
    <sodipodi:guide
       position="4.1796875e-06,-2.6953124e-06"
       orientation="0,22"
       id="guide4118" />
    <sodipodi:guide
       position="22.000004,-2.6953124e-06"
       orientation="-22,0"
       id="guide4120" />
    <sodipodi:guide
       position="22.000004,21.999997"
       orientation="0,-22"
       id="guide4122" />
    <sodipodi:guide
       position="2.0000042,19.999997"
       orientation="18,0"
       id="guide4124" />
    <sodipodi:guide
       position="20.000004,1.9999973"
       orientation="-18,0"
       id="guide4128" />
    <sodipodi:guide
       position="20.000004,19.999997"
       orientation="0,-18"
       id="guide4130" />
    <sodipodi:guide
       position="3.0000042,18.999997"
       orientation="16,0"
       id="guide4132" />
    <sodipodi:guide
       position="3.0000042,2.9999973"
       orientation="0,16"
       id="guide4134" />
    <sodipodi:guide
       position="19.000004,2.9999973"
       orientation="-16,0"
       id="guide4136" />
    <sodipodi:guide
       position="19.000004,18.999997"
       orientation="0,-16"
       id="guide4138" />
    <inkscape:grid
       type="xygrid"
       id="grid4140" />
  </sodipodi:namedview>
  <metadata
     id="metadata3765">
    <rdf:RDF>
      <cc:Work
         rdf:about="">
        <dc:format>image/svg+xml</dc:format>
        <dc:type
           rdf:resource="http://purl.org/dc/dcmitype/StillImage" />
        <dc:title />
      </cc:Work>
    </rdf:RDF>
  </metadata>
  <g
     inkscape:label="Capa 1"
     inkscape:groupmode="layer"
     id="layer1"
     transform="translate(-553.72253,-583.11926)">
    <path
       style="opacity:1;fill:#666666;fill-opacity:1;stroke:none"
       d="m 16,14 0,2 -2,0 0,1 2,0 0,2 1,0 0,-2 2,0 0,-1 -2,0 0,-2 z"
       transform="translate(553.72253,583.11926)"
       id="rect4112"
       inkscape:connector-curvature="0"
       sodipodi:nodetypes="ccccccccccccc" />
    <path
       style="opacity:1;fill:#666666;fill-opacity:1;stroke:none"
       d="M 3 3 L 3 19 L 12 19 L 12 18 L 10 18 L 10 16 L 12 16 L 12 15 L 10 15 L 10 13 L 12 13 L 12 12 L 10 12 L 10 10 L 12 10 L 12 12 L 13 12 L 13 10 L 15 10 L 15 12 L 16 12 L 16 10 L 18 10 L 18 12 L 19 12 L 19 3 L 3 3 z M 4 4 L 6 4 L 7 4 L 9 4 L 9 9 L 4 9 L 4 7 L 4 6 L 4 4 z M 10 4 L 12 4 L 12 6 L 10 6 L 10 4 z M 13 4 L 15 4 L 15 6 L 13 6 L 13 4 z M 16 4 L 18 4 L 18 6 L 16 6 L 16 4 z M 10 7 L 12 7 L 12 9 L 10 9 L 10 7 z M 13 7 L 15 7 L 15 9 L 13 9 L 13 7 z M 16 7 L 18 7 L 18 9 L 16 9 L 16 7 z M 4 10 L 6 10 L 6 12 L 4 12 L 4 10 z M 7 10 L 9 10 L 9 12 L 7 12 L 7 10 z M 4 13 L 6 13 L 6 15 L 4 15 L 4 13 z M 7 13 L 9 13 L 9 15 L 7 15 L 7 13 z M 4 16 L 6 16 L 6 18 L 4 18 L 4 16 z M 7 16 L 9 16 L 9 18 L 7 18 L 7 16 z "
       transform="translate(553.72253,583.11926)"
       id="rect4112-4" />
    <path
       style="opacity:1;fill:#1d99f3;fill-opacity:1;stroke:none"
       d="M 4 4 L 4 7 L 4 9 L 9 9 L 9 7 L 9 4 L 7 4 L 4 4 z "
       transform="translate(553.72253,583.11926)"
       id="rect4173" />
  </g>
</svg>
